img/icon-technics.svg

<svg width="78" height="62" viewBox="0 0 78 62" fill="none" xmlns="http://www.w3.org/2000/svg">
<path fill-rule="evenodd" clip-rule="evenodd" d="M0 45.875C0 36.968 7.22 29.749 16.125 29.749C25.031 29.749 32.251 36.968 32.25 45.875C32.25 54.78 25.03 62 16.125 62C7.22 62 0 54.78 0 45.875ZM10.9579 51.0421C12.3283 52.4125 14.187 53.1823 16.125 53.182C18.063 53.1823 19.9217 52.4125 21.2921 51.0421C22.6625 49.6718 23.4323 47.813 23.432 45.875C23.432 41.8395 20.1605 38.568 16.125 38.568C12.0895 38.568 8.818 41.8395 8.818 45.875C8.81773 47.813 9.58749 49.6718 10.9579 51.0421ZM60.854 45.874C56.4015 45.874 52.792 49.4835 52.792 53.936C52.792 56.8163 54.3286 59.4778 56.823 60.9179C59.3174 62.3581 62.3906 62.3581 64.885 60.9179C67.3794 59.4778 68.916 56.8163 68.916 53.936C68.9165 51.7977 68.0673 49.7468 66.5553 48.2347C65.0433 46.7227 62.9923 45.8735 60.854 45.874ZM55.792 53.936C55.7914 56.7322 58.0578 58.9995 60.854 59C63.6502 59.0006 65.9174 56.7342 65.918 53.938C65.9186 51.1418 63.6522 48.8746 60.856 48.874C58.0598 48.8735 55.7926 51.1398 55.792 53.936Z" fill="white"/>
<path fill-rule="evenodd" clip-rule="evenodd" d="M75.437 31.313C75.875 34.625 77.898 49.727 77.898 49.727C77.898 49.727 78.641 52.875 75 52.875H73.045C72.656 46.473 67.355 41.396 60.854 41.396C54.353 41.396 49.053 46.473 48.663 52.875H38.499C39.19 50.664 39.563 48.313 39.563 45.875C39.563 32.929 29.069 22.436 16.125 22.436C11.4651 22.4285 6.90969 23.8168 3.046 26.422C3.001 23.463 3.004 12.537 5.312 6.167C5.312 6.167 6.375 3.625 8.75 3C11.125 2.375 33.5 0 33.5 0C33.5 0 35.814 0.062 36.626 1.875C37.438 3.688 47.188 23.75 47.188 23.75L59 25.128V19.833H63V14H66V25.946L71.812 26.625C71.812 26.625 74.89 27.172 75.437 31.313ZM16.125 19.833H23.083V6.167H16.125V19.833ZM33.083 19.833H26.125V6.167H33.083V19.833ZM49 36H53.016V29H49V36ZM60.016 36H56V29H60.016V36ZM63 36H67.016V29H63V36Z" fill="white"/>
</svg>

<svg width="78" height="62" fill="none" xmlns="http://www.w3.org/2000/svg"><path fill-rule="evenodd" clip-rule="evenodd" d="M0 45.9a16.1 16.1 0 1132.3 0 16.1 16.1 0 01-32.3 0zM11 51a7.3 7.3 0 1010.3-10.3A7.3 7.3 0 0011 51zM60.9 46a8 8 0 100 16.1 8 8 0 000-16.1zm-5.1 8a5 5 0 1010.1 0 5 5 0 00-10.1 0z" fill="#fff"/><path fill-rule="evenodd" clip-rule="evenodd" d="M75.4 31.3L78 49.7S78.6 53 75 53h-2a12.2 12.2 0 00-24.3 0H38.5A23.4 23.4 0 003 26.4c0-3 0-13.9 2.3-20.2 0 0 1-2.6 3.5-3.2 2.3-.6 24.7-3 24.7-3s2.3 0 3.1 1.9l10.6 21.9L59 25v-5.3h4V14h3v12l5.8.6s3 .6 3.6 4.7zM16.1 19.8h7V6.2h-7v13.6zm17 0h-7V6.2h7v13.6zM49 36h4v-7h-4v7zm11 0h-4v-7h4v7zm3 0h4v-7h-4v7z" fill="#fff"/></svg>
